X: 61
T: the Pantheon
%R: jig, march
B: Stewart "A Select Collection of Airs, Jigs, Marches and Reels", ca.1784, p.28,29 #61
F: http://imslp.org/wiki/A_Select_Collection_of_Airs,_Jigs,_Marches_and_Reels_%28Various%29
Z: 2017 John Chambers <jc:trillian.mit.edu>
M: 6/8
L: 1/8
K: G
|:\
d2d d2c | B2B B2A | G2(G A)GA | B2B B2c |\
d2d d2c | B2B B2A | G2G AGA | [B3G3] [B3G3] :|
|:\
b2b bag | a2d def | g2g gfe | f2B Bcd |\
e2(e e)dc | d2G GAB | cdc BcB | A3 A3 :|
|:\
B3 AGA | BcB AGA | BcB AGA | BcB A3 |\
a2a a2g | f2f f2e | d2d ede | d3- d2 (G//A//B//c//) |
d2d d2c | B2B B2A | G2(G A)GA | B2B B2c |\
d2d d2c | {c}B2B B2A | G2G AGA | G3- G3 :|
